X:1
T:Title
%%score ( 1 2 ) { 3 | 4 }
L:1/8
Q:1/4=78
M:2/4
K:G
V:1 treble nm="Drawbar Organ, Soprano"
V:2 treble 
V:3 bass nm="Drawbar Organ, The Angel of the Lord"
V:4 bass 
V:1
 [DB] [DB]2 [CA]- | [CA][B,G] [DF][CE] | [B,D] [DG]2 [GB] | [EA] G2 F | D/E/[DF] [DG][FA] | %5
w: By~Robert~Lowry * *|||||
 [GB] [Ac]3 | [Bd]/[Ac]/[GB] [Gc]/[EA]/[DG] | [DF] [DG]3- | [DG] [FA]2 [GB] | [FA][Fd] [A^c][GB] | %10
w: |||||
 [FA]B ^c[Fd] | [Ge] [Fd]2 [E^c] | [^CA]/[DB]/[E^c] [Fd][Ge] | [E^c]d A2 | [GB][FA] [EG][EG] | %15
w: |||||
 [^CE] D3 | [Fd] d2 B | [Gd] d2 B | [Gd]/[Gd]/[Ge] [Ge][Ge] | [Ge] d2 B | [Bd][Ac] [FA]2 | %21
w: ||||||
 [Fd]/[Fd]/[Gd] [GB]2 | [GB][GB] [Bd][Ac] | [GB] [FA]3 | [Fd] d2 B | [Gd] d2 B | %26
w: |||||
 [Gd]/[Gd]/[Ge] [Ge][Ge] | [Ge] d2 B | [Bd][Ac] [FA]2 | [Fd]/[Fd]/[Gd] [GB]2 | [GB][Gd] [Gc][GB] | %31
w: |||||
 [FA] G3- | G4 |] %33
w: ||
V:2
 x4 | x4 | x4 | z D3 | x4 | x4 | x4 | x4 | x4 | x4 | z .G3 | x4 | x4 | z F3 | x4 | x4 | z G3 | %17
 z G3 | x4 | z G3 | x4 | x4 | x4 | x4 | z G3 | z G3 | x4 | z G3 | x4 | x4 | x4 | x4 | x4 |] %33
V:3
 G, G,2 G,- | G,G, G,G, | G, B,2 D | C B,2 A, | F,/G,/A, B,[K:treble]D | D D3 | DD E/C/C | %7
 A, B,3- | B, D2 D | DD DD | DD[K:bass] A,A, | B, A,3 | A,A, A,A, | A,A,[K:treble] D2 | DD A,A, | %15
 G, F,3 | A,/C/B, B,D | B,B, B,D | B,/B,/[K:treble]C CC | C B,2 D | DD D2 | D/D/B, D2 | DD DD | %23
 D D3 | A,/C/B, B,D | B,B, B,D | B,/B,/[K:treble]C CC | C B,2 D | DD D2 | D/D/B, D2 | DD ED | %31
 C B,3- | B,4 |] %33
V:4
 G,, G,,2 G,,- | G,,G,, G,,G,, | G,, G,,3 | C, D,3 | D,D, D,D, | D, D,3 | D,G, .C,D, | D, G,,3- | %8
 G,, D,2 D, | D,D, D,D, | D,G, E,D, | .G,2 z2 | z4 | A,, D,3 | G,A, z A,,- | A,, D,3 | D,G, G,G, | %17
 G,G, G,G, | G,/G,/C, C,C,/D,/ | E,/F,/ G,3 | G,D, D,2 | D,/D,/G, G,2 | G,G, G,G, | G, D,3 | %24
 D,G, G,G, | G,G, G,G, | G,/G,/C, C,C,/D,/ | E,/F,/ G,3 | G,D, D,2 | D,/D,/G, G,2 | G,B,, C,D, | %31
 D, G,,3- | G,,4 |] %33

